X:3
T:Bluesette
C:Toots Thielemans
L:1/4
M:3/4
I:linebreak $
K:Bb
"Bb" F G A | B c d |"Aø" e2 G |"D7" ^F3 |$"Gm" d2 F |"C7" =E3 |"Fm" c2 E |"Bb7" D3 |$"Eb" B2 D |
E F _G/_A/ ||[K:Db]"Ebm" B2 g |"Ab7" f2 e |$"Db" A2 f | e2 d ||[K:B]"C#m" G2 e |"F#7" d2 c |$
"B" F G A | B c d ||[K:Bb]"Cm" f2 e |"F7" d2 c |$"Dm" F3 |"Db7" z3 |"Cm" z3 |"F7" z3 |]

